figures-source/3.17.svg

<svg xmlns:rdf="http://www.w3.org/1999/02/22-rdf-syntax-ns#" xmlns="http://www.w3.org/2000/svg" height="222.96" width="419.85" version="1.1" xmlns:cc="http://creativecommons.org/ns#" xmlns:dc="http://purl.org/dc/elements/1.1/">
 <metadata>
  <rdf:RDF>
   <cc:Work rdf:about="">
    <dc:format>image/svg+xml</dc:format>
    <dc:type rdf:resource="http://purl.org/dc/dcmitype/StillImage"/>
    <dc:title/>
   </cc:Work>
  </rdf:RDF>
 </metadata>
 <defs>
  <marker id="Arrow1Lend" refY="0" refX="0" orient="auto">
   <path style="marker-start:none;" d="m-10,0,0-2,10,2-10,2z" fill-rule="evenodd" stroke="#000" stroke-width="1px"/>
  </marker>
 </defs>
 <g transform="translate(-111.24,-201)">
  <rect rx="8.0854" ry="18" height="36" width="48.158" stroke="#616161" y="265.37" x="190.05" stroke-width="3px" fill="#d3f5d6"/>
  <text font-family="Helvetica" font-size="12px" stroke="#000000" y="265.37" x="190.05499" stroke-width="0px" fill="#000000">
   <tspan font-size="12px" fill="#000000" style="text-anchor:middle;text-align:center;" stroke="#000000" y="289.37" x="214.13374" font-family="&apos;LucidaGrande" text-align="center">C1</tspan>
  </text>
  <rect rx="8.0854" ry="18" height="36" width="48.158" stroke="#616161" y="265.37" x="112.74" stroke-width="3px" fill="#d3f5d6"/>
  <text font-family="Helvetica" font-size="12px" stroke="#000000" y="265.37" x="112.74" stroke-width="0px" fill="#000000">
   <tspan font-size="12px" fill="#000000" style="text-anchor:middle;text-align:center;" stroke="#000000" y="289.37" x="136.81876" font-family="&apos;LucidaGrande" text-align="center">C0</tspan>
  </text>
  <path style="marker-start:none;marker-end:url(#Arrow1Lend);" fill="none" d="m188.56,283.37-26.157,0" stroke="#000"/>
  <rect rx="8.0854" ry="18" height="36" width="48.158" stroke="#616161" y="265.37" x="267.37" stroke-width="3px" fill="#d3f5d6"/>
  <text font-family="Helvetica" font-size="12px" stroke="#000000" y="265.37" x="267.37" stroke-width="0px" fill="#000000">
   <tspan font-size="12px" fill="#000000" style="text-anchor:middle;text-align:center;" stroke="#000000" y="289.37" x="291.44876" font-family="&apos;LucidaGrande" text-align="center">C2</tspan>
  </text>
  <path style="marker-start:none;marker-end:url(#Arrow1Lend);" fill="none" d="m265.87,283.37-26.158,0" stroke="#000"/>
  <rect height="36" width="70.022" stroke="#616161" y="202" x="460.07" stroke-width="2px" fill="#EEE"/>
  <text font-family="Luxi Sans" font-size="10px" stroke="#cccccc" y="202" x="460.06799" stroke-width="0px" fill="#cccccc">
   <tspan font-size="10px" fill="#777777" style="text-anchor:middle;text-align:center;" stroke="#777777" y="225" x="495.0791" font-family="&apos;LucidaGrande" text-align="center">master</tspan>
  </text>
  <path style="marker-start:none;marker-end:url(#Arrow1Lend);" fill="none" d="m495.08,239,0,24.87" stroke="#000"/>
  <rect height="36" width="70.022" stroke="#616161" y="386.96" x="409.07" stroke-width="2px" fill="#EEE"/>
  <text font-family="Luxi Sans" font-size="10px" stroke="#cccccc" y="386.95999" x="409.06799" stroke-width="0px" fill="#cccccc">
   <tspan font-size="10px" fill="#777777" style="text-anchor:middle;text-align:center;" stroke="#777777" y="409.95999" x="444.0791" font-family="&apos;LucidaGrande" text-align="center">iss53</tspan>
  </text>
  <path style="marker-start:none;marker-end:url(#Arrow1Lend);" fill="none" d="m444.08,385.96,0-26.83" stroke="#000"/>
  <rect rx="8.0854" ry="18" height="36" width="48.158" stroke="#616161" y="321.63" x="345.44" stroke-width="3px" fill="#d3f5d6"/>
  <text font-family="Helvetica" font-size="12px" stroke="#000000" y="321.63" x="345.43799" stroke-width="0px" fill="#000000">
   <tspan font-size="12px" fill="#000000" style="text-anchor:middle;text-align:center;" stroke="#000000" y="345.63" x="369.51675" font-family="&apos;LucidaGrande" text-align="center">C3</tspan>
  </text>
  <path style="marker-start:none;marker-end:url(#Arrow1Lend);" fill="none" d="M347.46,323.74,313.5,299.26" stroke="#000"/>
  <rect rx="8.0854" ry="18" height="36" width="48.158" stroke="#616161" y="265.37" x="344.68" stroke-width="3px" fill="#d3f5d6"/>
  <text font-family="Helvetica" font-size="12px" stroke="#000000" y="265.37" x="344.685" stroke-width="0px" fill="#000000">
   <tspan font-size="12px" fill="#000000" style="text-anchor:middle;text-align:center;" stroke="#000000" y="289.37" x="368.76376" font-family="&apos;LucidaGrande" text-align="center">C4</tspan>
  </text>
  <path style="marker-start:none;marker-end:url(#Arrow1Lend);" fill="none" d="m343.18,283.37-26.158,0" stroke="#000"/>
  <rect rx="8.0854" ry="18" height="36" width="48.158" stroke="#616161" y="321.63" x="420" stroke-width="3px" fill="#d3f5d6"/>
  <text font-family="Helvetica" font-size="12px" stroke="#000000" y="321.63" x="420" stroke-width="0px" fill="#000000">
   <tspan font-size="12px" fill="#000000" style="text-anchor:middle;text-align:center;" stroke="#000000" y="345.63" x="444.07874" font-family="&apos;LucidaGrande" text-align="center">C5</tspan>
  </text>
  <path style="marker-start:none;marker-end:url(#Arrow1Lend);" fill="none" d="m418.5,339.63-23.405,0" stroke="#000"/>
  <rect rx="8.0854" ry="18" height="36" width="48.158" stroke="#616161" y="265.37" x="471" stroke-width="3px" fill="#bddbc3"/>
  <text font-family="Helvetica" font-size="12px" stroke="#000000" y="265.37" x="471" stroke-width="0px" fill="#000000">
   <tspan font-size="12px" fill="#000000" style="text-anchor:middle;text-align:center;" stroke="#000000" y="289.37" x="495.07874" font-family="&apos;LucidaGrande" text-align="center">C6</tspan>
  </text>
  <path style="marker-start:none;marker-end:url(#Arrow1Lend);" fill="none" d="m469.5,283.37-75.158,0" stroke="#000"/>
  <path style="marker-start:none;marker-end:url(#Arrow1Lend);" fill="none" d="m477.75,302.48-16.351,18.038" stroke="#000"/>
 </g>
</svg>

<?xml version="1.0" encoding="utf-8"?>
<svg xmlns="http://www.w3.org/2000/svg" xmlns:xlink="http://www.w3.org/1999/xlink">
	<defs>
		<marker id="Arrow1Lend" orient="auto" refX="0.0" refY="0.0" style="overflow:visible;">
			
              
			<path d="M -10,0.0 L -10.0,-2.0 L 0.0,0.0 L -10.0,2.0 z " id="path3666" style="fill-rule:evenodd;stroke:#000000;stroke-width:1.0px;marker-start:none;"/>
			
            
		</marker>
	</defs>
	<g style="stroke:#000000;fill:#fff">
		<rect height="36.0" id="1299" rx="8.08543259671" ry="18.0" style="stroke:#616161;stroke-width:3.000000px;fill:#d3f5d6" width="48.1575" x="190.055" y="265.37"/>
		<text id="1299_text" style="fill:#000000;stroke:#000000;stroke-width:0px;font-family: Helvetica;font-size:12px" x="190.055" y="265.37">
			<tspan fill="#000000" font-family="LucidaGrande;" font-size="12.0px" id="1299_line1" stroke="#000000" text-align="center" text-anchor="middle" x="214.13375" y="289.37">
				C1
			</tspan>
		</text>
		<rect height="36.0" id="1302" rx="8.08543259671" ry="18.0" style="stroke:#616161;stroke-width:3.000000px;fill:#d3f5d6" width="48.1575" x="112.74" y="265.37"/>
		<text id="1302_text" style="fill:#000000;stroke:#000000;stroke-width:0px;font-family: Helvetica;font-size:12px" x="112.74" y="265.37">
			<tspan fill="#000000" font-family="LucidaGrande;" font-size="12.0px" id="1302_line1" stroke="#000000" text-align="center" text-anchor="middle" x="136.81875" y="289.37">
				C0
			</tspan>
		</text>
		<path d="M 188.555,283.37 L 162.398,283.37" id="1303" style="marker-start:none;stroke:#000000;marker-end:url(#Arrow1Lend);fill:none"/>
		<rect height="36.0" id="1304" rx="8.08543259671" ry="18.0" style="stroke:#616161;stroke-width:3.000000px;fill:#d3f5d6" width="48.1575" x="267.37" y="265.37"/>
		<text id="1304_text" style="fill:#000000;stroke:#000000;stroke-width:0px;font-family: Helvetica;font-size:12px" x="267.37" y="265.37">
			<tspan fill="#000000" font-family="LucidaGrande;" font-size="12.0px" id="1304_line1" stroke="#000000" text-align="center" text-anchor="middle" x="291.44875" y="289.37">
				C2
			</tspan>
		</text>
		<path d="M 265.87,283.37 L 239.712,283.37" id="1306" style="marker-start:none;stroke:#000000;marker-end:url(#Arrow1Lend);fill:none"/>
		<rect height="36.0" id="1316" style="stroke:#616161;stroke-width:2.000000px;fill:#eeeeee" width="70.0222" x="460.068" y="202.0"/>
		<text id="1316_text" style="fill:#cccccc;stroke:#cccccc;stroke-width:0px;font-family: Luxi Sans;font-size:10px" x="460.068" y="202.0">
			<tspan fill="#777777" font-family="LucidaGrande;" font-size="10.0px" id="1316_line1" stroke="#777777" text-align="center" text-anchor="middle" x="495.0791" y="225.0">
				master
			</tspan>
		</text>
		<path d="M 495.079,239.0 L 495.079,263.87" id="1334" style="marker-start:none;stroke:#000000;marker-end:url(#Arrow1Lend);fill:none"/>
		<rect height="36.0" id="1335" style="stroke:#616161;stroke-width:2.000000px;fill:#eeeeee" width="70.0222" x="409.068" y="386.96"/>
		<text id="1335_text" style="fill:#cccccc;stroke:#cccccc;stroke-width:0px;font-family: Luxi Sans;font-size:10px" x="409.068" y="386.96">
			<tspan fill="#777777" font-family="LucidaGrande;" font-size="10.0px" id="1335_line1" stroke="#777777" text-align="center" text-anchor="middle" x="444.0791" y="409.96">
				iss53
			</tspan>
		</text>
		<path d="M 444.079,385.96 L 444.079,359.13" id="1336" style="marker-start:none;stroke:#000000;marker-end:url(#Arrow1Lend);fill:none"/>
		<rect height="36.0" id="1337" rx="8.08543259671" ry="18.0" style="stroke:#616161;stroke-width:3.000000px;fill:#d3f5d6" width="48.1575" x="345.438" y="321.63"/>
		<text id="1337_text" style="fill:#000000;stroke:#000000;stroke-width:0px;font-family: Helvetica;font-size:12px" x="345.438" y="321.63">
			<tspan fill="#000000" font-family="LucidaGrande;" font-size="12.0px" id="1337_line1" stroke="#000000" text-align="center" text-anchor="middle" x="369.51675" y="345.63">
				C3
			</tspan>
		</text>
		<path d="M 347.462,323.736 L 313.503,299.264" id="1338" style="marker-start:none;stroke:#000000;marker-end:url(#Arrow1Lend);fill:none"/>
		<rect height="36.0" id="1339" rx="8.08543259671" ry="18.0" style="stroke:#616161;stroke-width:3.000000px;fill:#d3f5d6" width="48.1575" x="344.685" y="265.37"/>
		<text id="1339_text" style="fill:#000000;stroke:#000000;stroke-width:0px;font-family: Helvetica;font-size:12px" x="344.685" y="265.37">
			<tspan fill="#000000" font-family="LucidaGrande;" font-size="12.0px" id="1339_line1" stroke="#000000" text-align="center" text-anchor="middle" x="368.76375" y="289.37">
				C4
			</tspan>
		</text>
		<path d="M 343.185,283.37 L 317.027,283.37" id="1340" style="marker-start:none;stroke:#000000;marker-end:url(#Arrow1Lend);fill:none"/>
		<rect height="36.0" id="1343" rx="8.08543259671" ry="18.0" style="stroke:#616161;stroke-width:3.000000px;fill:#d3f5d6" width="48.1575" x="420.0" y="321.63"/>
		<text id="1343_text" style="fill:#000000;stroke:#000000;stroke-width:0px;font-family: Helvetica;font-size:12px" x="420.0" y="321.63">
			<tspan fill="#000000" font-family="LucidaGrande;" font-size="12.0px" id="1343_line1" stroke="#000000" text-align="center" text-anchor="middle" x="444.07875" y="345.63">
				C5
			</tspan>
		</text>
		<path d="M 418.5,339.63 L 395.095,339.63" id="1344" style="marker-start:none;stroke:#000000;marker-end:url(#Arrow1Lend);fill:none"/>
		<rect height="36.0" id="1345" rx="8.08543259671" ry="18.0" style="stroke:#616161;stroke-width:3.000000px;fill:#bddbc3" width="48.1575" x="471.0" y="265.37"/>
		<text id="1345_text" style="fill:#000000;stroke:#000000;stroke-width:0px;font-family: Helvetica;font-size:12px" x="471.0" y="265.37">
			<tspan fill="#000000" font-family="LucidaGrande;" font-size="12.0px" id="1345_line1" stroke="#000000" text-align="center" text-anchor="middle" x="495.07875" y="289.37">
				C6
			</tspan>
		</text>
		<path d="M 469.5,283.37 L 394.342,283.37" id="1346" style="marker-start:none;stroke:#000000;marker-end:url(#Arrow1Lend);fill:none"/>
		<path d="M 477.754,302.481 L 461.403,320.519" id="1347" style="marker-start:none;stroke:#000000;marker-end:url(#Arrow1Lend);fill:none"/>
	</g>
</svg>
